contributed-vectors/_1money.svg

<?xml version="1.0" encoding="UTF-8" standalone="no"?>
<svg
   xmlns:dc="http://purl.org/dc/elements/1.1/"
   xmlns:cc="http://creativecommons.org/ns#"
   xmlns:rdf="http://www.w3.org/1999/02/22-rdf-syntax-ns#"
   xmlns:svg="http://www.w3.org/2000/svg"
   xmlns="http://www.w3.org/2000/svg"
   xmlns:xlink="http://www.w3.org/1999/xlink"
   xmlns:sodipodi="http://sodipodi.sourceforge.net/DTD/sodipodi-0.dtd"
   xmlns:inkscape="http://www.inkscape.org/namespaces/inkscape"
   viewBox="0 0 192 192"
   version="1.1"
   id="svg16"
   sodipodi:docname="1money.svg"
   inkscape:version="0.92.4 (5da689c313, 2019-01-14)">
  <metadata
     id="metadata20">
    <rdf:RDF>
      <cc:Work
         rdf:about="">
        <dc:format>image/svg+xml</dc:format>
        <dc:type
           rdf:resource="http://purl.org/dc/dcmitype/StillImage" />
        <dc:title></dc:title>
      </cc:Work>
    </rdf:RDF>
  </metadata>
  <sodipodi:namedview
     pagecolor="#ffffff"
     bordercolor="#666666"
     borderopacity="1"
     objecttolerance="10"
     gridtolerance="10"
     guidetolerance="10"
     inkscape:pageopacity="0"
     inkscape:pageshadow="2"
     inkscape:window-width="1920"
     inkscape:window-height="1017"
     id="namedview18"
     showgrid="true"
     inkscape:zoom="6.9532167"
     inkscape:cx="166.83312"
     inkscape:cy="105.18043"
     inkscape:window-x="-8"
     inkscape:window-y="-8"
     inkscape:window-maximized="1"
     inkscape:current-layer="svg16">
    <inkscape:grid
       type="xygrid"
       id="grid827"
       spacingx="4"
       spacingy="4" />
  </sodipodi:namedview>
  <defs
     id="defs4">
    <linearGradient
       inkscape:collect="always"
       id="linearGradient887">
      <stop
         style="stop-color:#f8c18c;stop-opacity:1"
         offset="0"
         id="stop883" />
      <stop
         style="stop-color:#ff837d;stop-opacity:1"
         offset="1"
         id="stop885" />
    </linearGradient>
    <linearGradient
       inkscape:collect="always"
       id="linearGradient879">
      <stop
         style="stop-color:#fdf5d9;stop-opacity:1"
         offset="0"
         id="stop875" />
      <stop
         style="stop-color:#ff837d;stop-opacity:1"
         offset="1"
         id="stop877" />
    </linearGradient>
    <style
       id="style2">.a{fill:none;stroke:#b1b5bd;stroke-linecap:round;stroke-linejoin:round;isolation:isolate;opacity:0.63;}</style>
    <linearGradient
       inkscape:collect="always"
       xlink:href="#linearGradient879"
       id="linearGradient881"
       x1="108"
       y1="168"
       x2="108"
       y2="60"
       gradientUnits="userSpaceOnUse" />
    <linearGradient
       inkscape:collect="always"
       xlink:href="#linearGradient887"
       id="linearGradient889"
       x1="48"
       y1="48"
       x2="144"
       y2="136"
       gradientUnits="userSpaceOnUse" />
  </defs>
  <rect
     style="opacity:1;vector-effect:none;fill:url(#linearGradient889);fill-opacity:1;fill-rule:evenodd;stroke:none;paint-order:stroke fill markers"
     id="rect836"
     width="160"
     height="160"
     x="16"
     y="16"
     ry="80" />
  <path
     style="fill:url(#linearGradient881);stroke:none;stroke-width:1px;stroke-linecap:butt;stroke-linejoin:miter;stroke-opacity:1;fill-opacity:1"
     d="M 166.31445 43.265625 L 153.64844 52.763672 C 162.66521 64.788288 168 79.746884 168 96 C 168 135.888 135.888 168 96 168 L 96 184 A 88 88 0 0 0 184 96 A 88 88 0 0 0 166.31445 43.265625 z "
     id="path840-2" />
  <path
     style="fill:#fdf5d9;stroke:none;opacity:1"
     d="M 96 8 A 88 88 0 0 0 8 96 A 88 88 0 0 0 96 184 L 96 168 C 56.112 168 24 135.888 24 96 C 24 56.112 56.112 24 96 24 C 119.63488 24 140.53646 35.277769 153.64844 52.763672 L 166.31445 43.265625 A 88 88 0 0 0 96 8 z "
     id="circle8" />
  <circle
     class="a"
     cx="96"
     cy="96"
     r="36.5"
     id="circle10"
     style="fill:#ffffff;stroke:none;opacity:1" />
  <path
     style="fill:#ff837d"
     d="m 92,72 v 4 h -4 c -8,0 -8,8 -8,8 v 8 c 0,0 0,8 8,8 h 16 v 8 H 88 l -8,8 h 12 v 4 h 8 v -4 c 0,0 2.66667,0 4,0 8,0 8,-8 8,-8 v -8 c 0,0 0,-8 -8,-8 H 88 v -8 h 16 l 8,-8 h -12 v -4 z"
     id="path829"
     inkscape:connector-curvature="0"
     sodipodi:nodetypes="ccsccsccccccccsccsccccccc" />
  <rect
     style="opacity:1;vector-effect:none;fill:#fdf5d9;fill-opacity:1;fill-rule:evenodd;stroke:none;paint-order:stroke fill markers"
     id="rect838"
     width="16"
     height="16"
     x="152"
     y="40"
     ry="8" />
</svg>

<svg xmlns="http://www.w3.org/2000/svg" xmlns:xlink="http://www.w3.org/1999/xlink" viewBox="0 0 192 192"><defs><linearGradient id="b"><stop offset="0" style="stop-color:#f8c18c;stop-opacity:1"/><stop offset="1" style="stop-color:#ff837d;stop-opacity:1"/></linearGradient><linearGradient id="a"><stop offset="0" style="stop-color:#fdf5d9;stop-opacity:1"/><stop offset="1" style="stop-color:#ff837d;stop-opacity:1"/></linearGradient><linearGradient xlink:href="#a" id="d" x1="108" x2="108" y1="168" y2="60" gradientUnits="userSpaceOnUse"/><linearGradient xlink:href="#b" id="c" x1="48" x2="144" y1="48" y2="136" gradientUnits="userSpaceOnUse"/></defs><rect width="160" height="160" x="16" y="16" ry="80" style="opacity:1;vector-effect:none;fill:url(#c);fill-opacity:1;fill-rule:evenodd;stroke:none;paint-order:stroke fill markers"/><path d="m166.314 43.266-12.666 9.498C162.665 64.788 168 79.747 168 96c0 39.888-32.112 72-72 72v16a88 88 0 0 0 88-88 88 88 0 0 0-17.686-52.734z" style="fill:url(#d);stroke:none;stroke-width:1px;stroke-linecap:butt;stroke-linejoin:miter;stroke-opacity:1;fill-opacity:1"/><path d="M96 8A88 88 0 0 0 8 96a88 88 0 0 0 88 88v-16c-39.888 0-72-32.112-72-72s32.112-72 72-72c23.635 0 44.536 11.278 57.648 28.764l12.666-9.498A88 88 0 0 0 96 8z" style="fill:#fdf5d9;stroke:none;opacity:1"/><circle cx="96" cy="96" r="36.5" style="fill:#fff;stroke:none;opacity:1;stroke-linecap:round;stroke-linejoin:round;isolation:isolate"/><path d="M92 72v4h-4c-8 0-8 8-8 8v8s0 8 8 8h16v8H88l-8 8h12v4h8v-4h4c8 0 8-8 8-8v-8s0-8-8-8H88v-8h16l8-8h-12v-4z" style="fill:#ff837d"/><rect width="16" height="16" x="152" y="40" ry="8" style="opacity:1;vector-effect:none;fill:#fdf5d9;fill-opacity:1;fill-rule:evenodd;stroke:none;paint-order:stroke fill markers"/></svg>
